X:1
T:Veni Creator (Mechlin), LM
T:Veni Creator (Mechlin), LM
T:Vesperale Romanum, 1848
T:Public Domain Courtesy of the Cyber Hymnal™
C:Vesperale Romanum, 1848
Z:Public Domain
Z:Courtesy of the Cyber Hymnal™
%%score ( 1 2 ) ( 3 4 )
L:1/8
M:none
K:A
V:1 treble 
V:2 treble 
V:3 bass 
V:4 bass 
V:1
 [B,E]2 | (F2 E2) D2 | (E2 F2) E2 | ([FA]2 [AB]2) [GB]2 | A6 | (A2 E2) [DF]2 | %6
 (A2 B2) [EA]2 [FB]2 [Ec]2 [Fc]2 | [GB]4 A2 | (B2 c2) [FA]2 | [EG]2 [DF]2 [B,-E]2 | B2 F2 [D-G]2 | %11
 A6 C4 | (G2 A2) [CF]2 | (E2 D2) F2 | A2 G2 F2 | !fermata![B,E]4 || A2- [A-B]2 [Ac]2 A2 | %17
 G2 F2 E2 | B2 F2 G2 | A2 A4 | (G2 A2) F2 | E2 D2 F2 | (A2 G2) [DF]2 | E4 E4 |] %24
V:2
 x2 | D4 D2 | C4 E2 | x6 | A6 | C4 x2 | C4 x8 | x6 | E4 x2 | x6 | B,4 x2 | D2 x8 | E4 x2 | B,6 | %14
 E4- ED | x4 || x8 | x6 | x6 | x6 | E4 x2 | x6 | C4 x2 | C8 |] %24
V:3
 [E,G,]2 | A,6 | A,4 [G,B,]2 | [F,C]2 [E,E]4 | [A,C]6 | A,6- | A,6 [D,F,]2 [C,G,]2 [A,,A,]2 | %7
 [E,B,]4 [A,C]2 | [G,B,]4 [F,C-]2 | [C,C]2 [D,A,]2 [E,G,]2 | [D,F,]4 [B,,B,]2 | [F,A,]6 x4 | %12
 [E,B,]2 A,4 | F,6 | [C,E,]4 [D,A,-]2 | !fermata!A,2 !fermata!G,2 || A,2- B,2 C2 [F,D]2 | B,6 | %18
 [B,D-]6 | D2 C4- | C2 A,2 x2 | [B,,F,]4 [D,B,]2 | [F,A,]4 [D,F,]2 | [A,,E,A,]8 |] %24
V:4
 x2 | (D,4 F,2) | A,4 x2 | x6 | x6 | (A,,4 D,2) | F,4 C,2 x6 | x6 | x6 | x6 | x6 | x10 | %12
 x2 (C,2 A,,2) | (B,,4 D,2) | x6 | E,4 || x2 A,2- A,2 x2 | E,4 G,2 | x6 | F,6 | C,4 D,2 | x6 | x6 | %23
 x8 |] %24

